resources/icons/16px/new-shield.svg

<svg width="16" height="16" viewBox="0 0 16 16" fill="none" xmlns="http://www.w3.org/2000/svg">
<path fill-rule="evenodd" clip-rule="evenodd" d="M11 4H12V5C12 5.55 12.45 6 13 6C13.55 6 14 5.55 14 5V4H15C15.55 4 16 3.55 16 3C16 2.45 15.55 2 15 2H14V1C14 0.45 13.55 0 13 0C12.45 0 12 0.45 12 1V2H11C10.45 2 10 2.45 10 3C10 3.55 10.45 4 11 4Z" fill="black"/>
<path fill-rule="evenodd" clip-rule="evenodd" d="M8 1C4.88889 3.14286 2.55556 4.21429 1 4.21429C1 9.21429 3.33333 13.1429 8 16C11.7969 13.6754 14.0492 10.6414 14.7569 6.89824C14.2001 7.42803 13.4908 7.79903 12.7016 7.93866C11.9403 10.3324 10.3819 12.3486 8 14.0258V4C8 2.994 8 2.01602 8 1Z" fill="black"/>
</svg>

<svg xmlns="http://www.w3.org/2000/svg" viewBox="0 0 16 16">
  <path d="M11 4h1v1c0 .55.45 1 1 1s1-.45 1-1V4h1c.55 0 1-.45 1-1s-.45-1-1-1h-1V1c0-.55-.45-1-1-1s-1 .45-1 1v1h-1c-.55 0-1 .45-1 1s.45 1 1 1"/>
  <path d="M8 1Q3.334 4.214 1 4.214 1 11.714 8 16q5.696-3.487 6.757-9.102c-.557.53-1.266.901-2.055 1.04-.762 2.394-2.32 4.41-4.702 6.088V1"/>
</svg>
